X: 3
T: The Flowers Of Edinburgh
C:Traditional
B: canberra pickers and fiddlers
B: old time tunes update
B: tunes
M:4/4
L:1/8
R: reel
Q: 1/4=100
K:G
V:1 
|:"G"D3E ~G3A|BGBd cBAG|"D"(3FGF EF DEFG|AFdF E2GE|
  "G"D3E ~G2A|BGBd "C"efge|"G"dcBA "D"GFGA|[1 "G"BGGF GAGE:|[2 "G"BGGF GABd||
|:"G"g2gf gbag|"D"f2fe fagf|"Em"edef gfed|Beed "(C)"efge|
  "G"dBGB d2Bd|"C"edef g2fe|"G"dcBA "D"GFGA|[1 "G"BGGF GABd:|["G"2 BGGF GAGE||
% abcbook-tune_id 6298c25d3a8c2a0e64aa8309
% abcbook-tune_composer_id 
% abcbook-link-0 https://www.youtube.com/watch?v=iSpLf1t2830
% abcbook-link-title-0 The Flowers of Edinburgh
% abcbook-boost 0
% abcbook-difficulty 0
% abcbook-tags celtic tunes,jims roots and blues,nick hutten,old time tunes,ralph cullen,© free
% abcbook-tablature 
% abcbook-transpose 
% abcbook-tuning GDAE
% abcbook-lastupdated 1739162383709
% abcbook-src-url https://tunebook.net/scrape/tunes.abc
% abcbook-soundfonts 
% abcbook-repeats 1


